X: 10594
Q: "Slow."
M: 3/4
L: 1/8
K: D
d2d2B2 | A4Bc | d2d2F2 | {E}D4d2 |\
d3e{de}f2 | Te4d2 | d2z2F2 | G3AB2 |\
{e}d4cB | A4 |]


